icons/editor-pencil-1-filled.svg

<svg width="25" height="24" viewBox="0 0 25 24" fill="none" xmlns="http://www.w3.org/2000/svg">
<g id="pencil-01-filled">
<path id="Icon" fill-rule="evenodd" clip-rule="evenodd" d="M13.4359 6.0381C13.9045 5.56947 14.6643 5.56947 15.1329 6.0381L18.2135 9.11864C18.6821 9.58727 18.6821 10.3471 18.2135 10.8157L8.63625 20.3929L3.47785 21.5833C3.42558 21.5951 3.37438 21.6004 3.32318 21.6004C2.90398 21.6004 2.56798 21.2068 2.66825 20.7727L3.85865 15.6153L13.4359 6.0381ZM15.8872 5.28385C15.4186 4.81522 15.4186 4.05542 15.8872 3.58679L16.2811 3.19292C16.808 2.66492 17.5003 2.40039 18.1915 2.40039C18.8837 2.40039 19.5749 2.66492 20.1029 3.19292L21.0586 4.14866C22.1136 5.20359 22.1136 6.91452 21.0586 7.97052L20.6648 8.36439C20.1962 8.83302 19.4364 8.83302 18.9677 8.36439L15.8872 5.28385Z" fill="black"/>
</g>
</svg>

<svg xmlns="http://www.w3.org/2000/svg" width="25" height="24" fill="none" viewBox="0 0 25 24"><path fill="currentColor" fill-rule="evenodd" d="M13.436 6.038a1.2 1.2 0 0 1 1.697 0l3.08 3.08a1.2 1.2 0 0 1 0 1.698l-9.577 9.577-5.158 1.19a.676.676 0 0 1-.81-.81l1.19-5.158zm2.451-.754a1.2 1.2 0 0 1 0-1.697l.394-.394a2.7 2.7 0 0 1 1.91-.793c.693 0 1.384.265 1.912.793l.956.956a2.703 2.703 0 0 1 0 3.822l-.394.393a1.2 1.2 0 0 1-1.697 0z" clip-rule="evenodd"/></svg>
